X:81
T:Lovely Nymph. JJo.081
S:J.Jones MS,1801,N.Shrops.
A:N Shropshire
Z:Neil Brookes
M:3/4
L:1/8
Q:1/4=100
K:G
BcdBAG|d4ef|g2f2Te2|dBG2z2|c2B2g2|e2d2 (3GBd|c2B2TA2|G6|!
BcdBAG|d4ef|g2f2 e2|dBG2z2|c2B2g2|e2d2 G/B/d/g/|{f}ed/c/B2TA2|G6||!
g4a2|b2a2g2|d2B2(3GBd|e2f2g2|G4A2|B2d2g2|(3bag f2Te2|d6|!
BcdBAG|d4ef|g2f2Te2|d2z2G2|c2B2g2|e2d2 G/B/d/g/|{f}ed/c/B2TA2|G6|]

